X: 38093
T: Splendid Isolation
R: reel
M: 4/4
K: Gdorian
|:F-~G3 d2cA|~G3A F2Ac|dAcA GDBc|d2gf ~g3a|
b2af ^f-gde|fdcB AFFA|^F-~G3 =FGAc|d_ecA G4:|
|:g2ag f2f^f|g~G3 Acdc|AG G2 Acdc|AAGA F4|
FGGF GdcA|G2 AG FGAc|d~g3 fgag|fdcA G4:|

